logo.svg

<svg width="134" height="46" xmlns="http://www.w3.org/2000/svg">
 <defs>
  <linearGradient y2="0.059487" x2="0.879458" y1="1.111273" x1="0.153553" id="paint0_linear_443_6694">
   <stop stop-color="#1ED478"/>
   <stop stop-color="#3F71F1" offset="1"/>
  </linearGradient>
 </defs>
 <g>
  <title>background</title>
  <rect fill="none" id="canvas_background" height="402" width="582" y="-1" x="-1"/>
 </g>
 <g>
  <title>Layer 1</title>
  <path id="svg_1" fill="url(#paint0_linear_443_6694)" d="m20.9312,1.65854l-13.99578,44.34146l45.40568,-10.0292l-31.4099,-34.31226zm24.1218,31.99036l-32.5064,7.1914l10.0293,-31.73239l22.4771,24.54099z"/>
  <path id="svg_2" fill="#3F71F1" d="m28.3806,4.85111c0.258,0.06449 0.516,0.12899 0.7418,0.12899c0.3869,0 0.8062,-0.09674 1.1609,-0.29023c0.5805,-0.32249 1.0319,-0.83846 1.2254,-1.45118c0.1935,-0.64497 0.129,-1.32218 -0.1612,-1.90265c-0.3225,-0.58047 -0.8385,-1.03195 -1.4512,-1.22544c-0.645,-0.19349 -1.3222,-0.12899 -1.9026,0.16124c-0.5805,0.32249 -1.032,0.83846 -1.2255,1.45118c-0.4515,1.32218 0.2903,2.74111 1.6124,3.12809z"/>
  <path id="svg_3" fill="#13CA88" d="m4.19438,37.0027c-0.64497,-0.1935 -1.32218,-0.129 -1.90265,0.1613c-0.58047,0.3224 -1.03195,0.8384 -1.22544,1.4511c-0.19349,0.645 -0.12899,1.3222 0.16124,1.9027c0.32249,0.5805 0.83846,1.0319 1.45118,1.2254c0.25798,0.0645 0.48372,0.129 0.74171,0.129c1.09644,0 2.0639,-0.7094 2.38638,-1.7414c0.19349,-0.645 0.12899,-1.3222 -0.16124,-1.9026c-0.32249,-0.5805 -0.83846,-1.032 -1.45118,-1.2255z"/>
  <path id="svg_4" fill="#2BABAA" d="m49.3097,39.4214c-0.6449,-0.1935 -1.3221,-0.129 -1.9026,0.1612c-0.5805,0.3225 -1.032,0.8385 -1.2255,1.4512c-0.1934,0.6449 -0.1289,1.3222 0.1613,1.9026c0.3225,0.5805 0.8384,1.032 1.4512,1.2255c0.258,0.0645 0.5159,0.129 0.7417,0.129c0.387,0 0.8062,-0.0968 1.1609,-0.2903c0.5805,-0.3225 1.032,-0.8384 1.2255,-1.4511c0.1934,-0.645 0.1289,-1.3222 -0.1613,-1.9027c-0.2902,-0.5805 -0.8062,-1.0319 -1.4512,-1.2254z"/>
  <path id="svg_5" fill="#ffffff" d="m15.2235,27.3282c-0.387,-1.0319 -0.774,-2.0316 -1.1287,-2.9668c-0.3548,-0.903 -0.7417,-1.8059 -1.0965,-2.6444c-0.3547,-0.8385 -0.7417,-1.6447 -1.1287,-2.4509l-0.0967,-0.1935l-2.83787,0l-0.09675,0.1935c-0.38698,0.8062 -0.77396,1.6124 -1.12869,2.4509c-0.35473,0.8385 -0.74171,1.7092 -1.09644,2.6444c-0.35473,0.9029 -0.74171,1.9026 -1.12869,2.9668c-0.38698,1.032 -0.80621,2.1606 -1.22544,3.4183l-0.16124,0.4515l3.38607,0l0.0645,-0.2257c0.12899,-0.387 0.25799,-0.8062 0.38698,-1.2255l0.35473,-1.0319l3.96654,0l0.3547,1.0319c0.129,0.4193 0.2903,0.8062 0.4193,1.2255l0.0645,0.2257l3.4828,0l-0.1613,-0.4515c-0.3869,-1.2254 -0.8062,-2.3863 -1.1931,-3.4183zm-4.9018,-4.3535c0.0968,0.258 0.1935,0.516 0.3225,0.8384c0.1612,0.387 0.2902,0.774 0.4515,1.2255c0.0967,0.3225 0.2257,0.6127 0.3547,0.9674l-2.28963,0c0.12899,-0.3225 0.22574,-0.6449 0.35473,-0.9352c0.16124,-0.4515 0.32248,-0.8707 0.48373,-1.2254c0.09677,-0.3225 0.22577,-0.6127 0.32247,-0.8707z"/>
  <path id="svg_6" fill="#ffffff" d="m22.9629,19.1049l-3.2571,0l0,12.0931l8.2878,0l0,-2.8701l-5.0307,0l0,-9.223z"/>
  <path id="svg_7" fill="#ffffff" d="m34.6692,21.9427l5.063,0l0,-2.8378l-8.3201,0l0,12.0931l3.2571,0l0,-4.7082l3.1603,0l0,-2.8379l-3.1603,0l0,-1.7092z"/>
  <path id="svg_8" fill="#ffffff" d="m52.3412,27.3282c-0.387,-1.0319 -0.774,-2.0316 -1.1287,-2.9668c-0.3548,-0.903 -0.7418,-1.8059 -1.0965,-2.6444c-0.3547,-0.8385 -0.7417,-1.6447 -1.1287,-2.4509l-0.0967,-0.1935l-2.8701,0l-0.0968,0.1935c-0.3869,0.8062 -0.7739,1.6124 -1.1287,2.4509c-0.3547,0.8385 -0.7417,1.7092 -1.0964,2.6444c-0.3547,0.9029 -0.7417,1.9026 -1.1287,2.9668c-0.387,1.032 -0.8062,2.1606 -1.2254,3.4183l-0.1613,0.4515l3.3861,0l0.0645,-0.2257c0.129,-0.387 0.258,-0.8062 0.387,-1.2255l0.3547,-1.0319l3.9666,0l0.3547,1.0319c0.129,0.4193 0.2902,0.8062 0.4192,1.2255l0.0645,0.2257l3.4828,0l-0.1612,-0.4515c-0.3547,-1.2254 -0.774,-2.3863 -1.1609,-3.4183zm-4.9018,-4.3535c0.0967,0.258 0.1935,0.516 0.3225,0.8384c0.1612,0.387 0.2902,0.774 0.4515,1.2255c0.0967,0.3225 0.2257,0.6127 0.3547,0.9674l-2.2896,0c0.129,-0.3225 0.2257,-0.6449 0.3547,-0.9352c0.1612,-0.4515 0.3225,-0.8707 0.4837,-1.2254c0.129,-0.3225 0.2258,-0.6127 0.3225,-0.8707z"/>
  <path id="svg_9" fill="#ffffff" d="m64.3698,27.8764c-0.129,0.0645 -0.2903,0.129 -0.4838,0.2258c-0.1612,0.0645 -0.3547,0.129 -0.5482,0.1935c-0.2257,0.0645 -0.4837,0.0967 -0.7417,0.1612c-0.2902,0.0323 -0.6127,0.0645 -0.9674,0.0645c-0.5483,0 -0.9997,-0.0967 -1.3867,-0.258c-0.3547,-0.1612 -0.6772,-0.387 -0.8707,-0.6772c-0.2258,-0.2902 -0.387,-0.645 -0.4838,-1.0642c-0.0967,-0.4192 -0.1612,-0.9029 -0.1612,-1.3867c0,-0.6127 0.0968,-1.1287 0.2257,-1.5479c0.1613,-0.4192 0.3548,-0.7417 0.6128,-0.9997c0.258,-0.258 0.5482,-0.4515 0.8707,-0.5482c0.3547,-0.129 0.6772,-0.1935 1.0319,-0.1935c0.5482,0 1.0642,0.0645 1.4834,0.1935c0.4515,0.129 0.8385,0.2902 1.161,0.4515l0.3547,0.1935l0.9675,-2.7089l-0.2258,-0.1612c-0.0967,-0.0645 -0.258,-0.129 -0.4514,-0.258c-0.2258,-0.0968 -0.4838,-0.2258 -0.8063,-0.3225c-0.3224,-0.0968 -0.6772,-0.1935 -1.0642,-0.258c-0.4192,-0.0645 -0.8707,-0.0967 -1.3866,-0.0967c-0.8707,0 -1.677,0.1289 -2.4509,0.4192c-0.7417,0.2902 -1.4189,0.7094 -1.9672,1.2254c-0.5482,0.5482 -0.9674,1.2255 -1.2899,1.9994c-0.3225,0.774 -0.4837,1.6769 -0.4837,2.6444c0,1.9671 0.516,3.5473 1.5479,4.6437c1.032,1.0965 2.5476,1.6447 4.4825,1.6447c0.903,0 1.6769,-0.0967 2.3864,-0.2902c0.7095,-0.1935 1.2254,-0.387 1.6124,-0.645l0.2258,-0.129l-0.9352,-2.6766l-0.258,0.1612z"/>
  <path id="svg_10" fill="#ffffff" d="m75.5923,23.4584l-3.6441,0l0,-4.3535l-3.257,0l0,12.0931l3.257,0l0,-4.8372l3.6441,0l0,4.8372l3.2571,0l0,-12.0931l-3.2571,0l0,4.3535z"/>
  <path id="svg_11" fill="#ffffff" d="m94.1673,31.198l-0.1613,-0.4515c-0.4192,-1.2254 -0.8384,-2.3863 -1.2254,-3.4183c-0.387,-1.0319 -0.774,-2.0316 -1.1287,-2.9668c-0.3547,-0.903 -0.7417,-1.8059 -1.0964,-2.6444c-0.3548,-0.8385 -0.7418,-1.6447 -1.0965,-2.4509l-0.0967,-0.1935l-2.8701,0l-0.0968,0.1935c-0.387,0.8062 -0.7739,1.6124 -1.1287,2.4509c-0.3547,0.8385 -0.7417,1.7092 -1.0964,2.6444c-0.3548,0.9029 -0.7417,1.9026 -1.1287,2.9668c-0.387,1.032 -0.8062,2.1606 -1.2255,3.4183l-0.1612,0.4515l3.3861,0l0.0645,-0.2257c0.129,-0.387 0.258,-0.8062 0.387,-1.2255l0.3547,-1.0319l3.9665,0l0.3548,1.0319c0.129,0.4193 0.2902,0.8062 0.4192,1.2255l0.0645,0.2257l3.5151,0zm-6.2885,-8.2233c0.0968,0.258 0.1935,0.516 0.3225,0.8384c0.1613,0.387 0.2903,0.774 0.4515,1.2255c0.0967,0.3225 0.2257,0.6127 0.3547,0.9674l-2.2896,0c0.129,-0.3225 0.2257,-0.6449 0.3547,-0.9352c0.1613,-0.4515 0.3225,-0.8707 0.4838,-1.2254c0.1289,-0.3225 0.2257,-0.6127 0.3224,-0.8707z"/>
  <path id="svg_12" fill="#ffffff" d="m99.9399,24.3291c0.7421,0.903 1.4511,1.8704 2.0961,2.8379c0.839,1.2577 1.645,2.5476 2.386,3.8375l0.097,0.1613l2.709,0l0,-12.0932l-3.225,0l0,5.966c-0.193,-0.2903 -0.419,-0.6127 -0.645,-0.9352c-0.451,-0.645 -0.903,-1.2577 -1.354,-1.8704c-0.452,-0.6127 -0.903,-1.161 -1.355,-1.7092c-0.451,-0.5482 -0.8703,-0.9997 -1.2251,-1.3544l-0.0967,-0.0968l-2.5799,0l0,12.0932l3.2248,0l0,-6.8367l-0.0322,0z"/>
  <path id="svg_13" fill="#ffffff" d="m112.194,29.7791c0.516,0.5482 1.161,0.9674 1.903,1.2254c0.742,0.2902 1.548,0.4192 2.451,0.4192c0.999,0 1.87,-0.0645 2.58,-0.2257c0.709,-0.129 1.225,-0.2902 1.548,-0.4192l0.225,-0.0968l0,-6.2239l-3.257,0l0,4.031c-0.064,0 -0.129,0 -0.226,0.0323c-0.193,0 -0.419,0 -0.709,0c-0.484,0 -0.903,-0.0968 -1.225,-0.2258c-0.355,-0.1612 -0.645,-0.3869 -0.871,-0.6772c-0.226,-0.2902 -0.419,-0.6449 -0.516,-1.0642c-0.129,-0.4192 -0.194,-0.9029 -0.194,-1.4189c0,-1.0642 0.258,-1.9026 0.71,-2.5154c0.451,-0.5804 1.258,-0.8707 2.322,-0.8707c0.516,0 0.967,0.0645 1.386,0.1935c0.42,0.129 0.807,0.2903 1.161,0.4515l0.355,0.1935l0.968,-2.6766l-0.226,-0.1613c-0.097,-0.0645 -0.258,-0.129 -0.452,-0.2579c-0.225,-0.0968 -0.483,-0.1935 -0.838,-0.3225c-0.323,-0.0968 -0.71,-0.1935 -1.161,-0.258c-0.452,-0.0645 -0.968,-0.0968 -1.516,-0.0968c-0.838,0 -1.612,0.129 -2.354,0.4193c-0.742,0.2902 -1.387,0.7094 -1.935,1.2254c-0.548,0.5482 -0.967,1.1932 -1.29,1.9994c-0.322,0.774 -0.483,1.6769 -0.483,2.6766c0,0.9675 0.129,1.8704 0.419,2.6444c0.29,0.7739 0.709,1.4512 1.225,1.9994z"/>
  <path id="svg_14" fill="#ffffff" d="m133.317,28.3602l-5.547,0l-0.032,-1.9672l3.225,0l0,-2.7733l-3.225,0l0.032,-1.677l5.547,0l0,-2.8378l-8.804,0l0,12.0931l8.804,0l0,-2.8378z"/>
 </g>
</svg>

<svg width="134" height="46" viewBox="0 0 134 46" fill="none" xmlns="http://www.w3.org/2000/svg">
<path d="M20.9312 1.65854L6.93542 46L52.3411 35.9708L20.9312 1.65854ZM45.053 33.6489L12.5466 40.8403L22.5759 9.10791L45.053 33.6489Z" fill="url(#paint0_linear_443_6694)"/>
<path d="M28.3806 4.85111C28.6386 4.9156 28.8966 4.9801 29.1224 4.9801C29.5093 4.9801 29.9286 4.88336 30.2833 4.68987C30.8638 4.36738 31.3152 3.85141 31.5087 3.23869C31.7022 2.59372 31.6377 1.91651 31.3475 1.33604C31.025 0.755569 30.509 0.304092 29.8963 0.110602C29.2513 -0.0828886 28.5741 -0.0183919 27.9937 0.271843C27.4132 0.594327 26.9617 1.1103 26.7682 1.72302C26.3167 3.0452 27.0585 4.46413 28.3806 4.85111Z" fill="#3F71F1"/>
<path d="M4.19438 37.0027C3.54941 36.8092 2.8722 36.8737 2.29173 37.164C1.71126 37.4864 1.25978 38.0024 1.06629 38.6151C0.8728 39.2601 0.937297 39.9373 1.22753 40.5178C1.55002 41.0983 2.06599 41.5497 2.67871 41.7432C2.93669 41.8077 3.16243 41.8722 3.42042 41.8722C4.51686 41.8722 5.48432 41.1628 5.8068 40.1308C6.00029 39.4858 5.93579 38.8086 5.64556 38.2282C5.32307 37.6477 4.8071 37.1962 4.19438 37.0027Z" fill="#13CA88"/>
<path d="M49.3097 39.4214C48.6648 39.2279 47.9876 39.2924 47.4071 39.5826C46.8266 39.9051 46.3751 40.4211 46.1816 41.0338C45.9882 41.6787 46.0527 42.356 46.3429 42.9364C46.6654 43.5169 47.1813 43.9684 47.7941 44.1619C48.0521 44.2264 48.31 44.2909 48.5358 44.2909C48.9228 44.2909 49.342 44.1941 49.6967 44.0006C50.2772 43.6781 50.7287 43.1622 50.9222 42.5495C51.1156 41.9045 51.0511 41.2273 50.7609 40.6468C50.4707 40.0663 49.9547 39.6149 49.3097 39.4214Z" fill="#2BABAA"/>
<path d="M15.2235 27.3282C14.8365 26.2963 14.4495 25.2966 14.0948 24.3614C13.74 23.4584 13.3531 22.5555 12.9983 21.717C12.6436 20.8785 12.2566 20.0723 11.8696 19.2661L11.7729 19.0726H8.93503L8.83828 19.2661C8.4513 20.0723 8.06432 20.8785 7.70959 21.717C7.35486 22.5555 6.96788 23.4262 6.61315 24.3614C6.25842 25.2643 5.87144 26.264 5.48446 27.3282C5.09748 28.3602 4.67825 29.4888 4.25902 30.7465L4.09778 31.198H7.48385L7.54835 30.9723C7.67734 30.5853 7.80634 30.1661 7.93533 29.7468L8.29006 28.7149H12.2566L12.6113 29.7468C12.7403 30.1661 12.9016 30.553 13.0306 30.9723L13.0951 31.198H16.5779L16.4166 30.7465C16.0297 29.5211 15.6104 28.3602 15.2235 27.3282ZM10.3217 22.9747C10.4185 23.2327 10.5152 23.4907 10.6442 23.8131C10.8054 24.2001 10.9344 24.5871 11.0957 25.0386C11.1924 25.3611 11.3214 25.6513 11.4504 26.006H9.16077C9.28976 25.6835 9.38651 25.3611 9.5155 25.0708C9.67674 24.6193 9.83798 24.2001 9.99923 23.8454C10.096 23.5229 10.225 23.2327 10.3217 22.9747Z" fill="#22222A"/>
<path d="M22.9629 19.1049H19.7058V31.198H27.9936V28.3279H22.9629V19.1049Z" fill="#22222A"/>
<path d="M34.6692 21.9427H39.7322V19.1049H31.4121V31.198H34.6692V26.4898H37.8295V23.6519H34.6692V21.9427Z" fill="#22222A"/>
<path d="M52.3412 27.3282C51.9542 26.2963 51.5672 25.2966 51.2125 24.3614C50.8577 23.4584 50.4707 22.5555 50.116 21.717C49.7613 20.8785 49.3743 20.0723 48.9873 19.2661L48.8906 19.0726H46.0205L45.9237 19.2661C45.5368 20.0723 45.1498 20.8785 44.795 21.717C44.4403 22.5555 44.0533 23.4262 43.6986 24.3614C43.3439 25.2643 42.9569 26.264 42.5699 27.3282C42.1829 28.3602 41.7637 29.4888 41.3445 30.7465L41.1832 31.198H44.5693L44.6338 30.9723C44.7628 30.5853 44.8918 30.1661 45.0208 29.7468L45.3755 28.7149H49.3421L49.6968 29.7468C49.8258 30.1661 49.987 30.553 50.116 30.9723L50.1805 31.198H53.6633L53.5021 30.7465C53.1474 29.5211 52.7281 28.3602 52.3412 27.3282ZM47.4394 22.9747C47.5361 23.2327 47.6329 23.4907 47.7619 23.8131C47.9231 24.2001 48.0521 24.5871 48.2134 25.0386C48.3101 25.3611 48.4391 25.6513 48.5681 26.006H46.2785C46.4075 25.6835 46.5042 25.3611 46.6332 25.0708C46.7944 24.6193 46.9557 24.2001 47.1169 23.8454C47.2459 23.5229 47.3427 23.2327 47.4394 22.9747Z" fill="#22222A"/>
<path d="M64.3698 27.8764C64.2408 27.9409 64.0795 28.0054 63.886 28.1022C63.7248 28.1667 63.5313 28.2312 63.3378 28.2957C63.1121 28.3602 62.8541 28.3924 62.5961 28.4569C62.3059 28.4892 61.9834 28.5214 61.6287 28.5214C61.0804 28.5214 60.629 28.4247 60.242 28.2634C59.8873 28.1022 59.5648 27.8764 59.3713 27.5862C59.1455 27.296 58.9843 26.9412 58.8875 26.522C58.7908 26.1028 58.7263 25.6191 58.7263 25.1353C58.7263 24.5226 58.8231 24.0066 58.952 23.5874C59.1133 23.1682 59.3068 22.8457 59.5648 22.5877C59.8228 22.3297 60.113 22.1362 60.4355 22.0395C60.7902 21.9105 61.1127 21.846 61.4674 21.846C62.0156 21.846 62.5316 21.9105 62.9508 22.0395C63.4023 22.1685 63.7893 22.3297 64.1118 22.491L64.4665 22.6845L65.434 19.9756L65.2082 19.8144C65.1115 19.7499 64.9502 19.6854 64.7568 19.5564C64.531 19.4596 64.273 19.3306 63.9505 19.2339C63.6281 19.1371 63.2733 19.0404 62.8863 18.9759C62.4671 18.9114 62.0156 18.8792 61.4997 18.8792C60.629 18.8792 59.8227 19.0081 59.0488 19.2984C58.3071 19.5886 57.6299 20.0078 57.0816 20.5238C56.5334 21.072 56.1142 21.7493 55.7917 22.5232C55.4692 23.2972 55.308 24.2001 55.308 25.1676C55.308 27.1347 55.824 28.7149 56.8559 29.8113C57.8879 30.9078 59.4035 31.456 61.3384 31.456C62.2414 31.456 63.0153 31.3593 63.7248 31.1658C64.4343 30.9723 64.9502 30.7788 65.3372 30.5208L65.563 30.3918L64.6278 27.7152L64.3698 27.8764Z" fill="#22222A"/>
<path d="M75.5923 23.4584H71.9482V19.1049H68.6912V31.198H71.9482V26.3608H75.5923V31.198H78.8494V19.1049H75.5923V23.4584Z" fill="#22222A"/>
<path d="M94.1673 31.198L94.006 30.7465C93.5868 29.5211 93.1676 28.3602 92.7806 27.3282C92.3936 26.2963 92.0066 25.2966 91.6519 24.3614C91.2972 23.4584 90.9102 22.5555 90.5555 21.717C90.2007 20.8785 89.8137 20.0723 89.459 19.2661L89.3623 19.0726H86.4922L86.3954 19.2661C86.0084 20.0723 85.6215 20.8785 85.2667 21.717C84.912 22.5555 84.525 23.4262 84.1703 24.3614C83.8155 25.2643 83.4286 26.264 83.0416 27.3282C82.6546 28.3602 82.2354 29.4888 81.8161 30.7465L81.6549 31.198H85.041L85.1055 30.9723C85.2345 30.5853 85.3635 30.1661 85.4925 29.7468L85.8472 28.7149H89.8137L90.1685 29.7468C90.2975 30.1661 90.4587 30.553 90.5877 30.9723L90.6522 31.198H94.1673ZM87.8788 22.9747C87.9756 23.2327 88.0723 23.4907 88.2013 23.8131C88.3626 24.2001 88.4916 24.5871 88.6528 25.0386C88.7495 25.3611 88.8785 25.6513 89.0075 26.006H86.7179C86.8469 25.6835 86.9436 25.3611 87.0726 25.0708C87.2339 24.6193 87.3951 24.2001 87.5564 23.8454C87.6853 23.5229 87.7821 23.2327 87.8788 22.9747Z" fill="#22222A"/>
<path d="M99.9399 24.3291C100.682 25.2321 101.391 26.1995 102.036 27.167C102.875 28.4247 103.681 29.7146 104.422 31.0045L104.519 31.1658H107.228V19.0726H104.003V25.0386C103.81 24.7483 103.584 24.4259 103.358 24.1034C102.907 23.4584 102.455 22.8457 102.004 22.233C101.552 21.6203 101.101 21.072 100.649 20.5238C100.198 19.9756 99.7787 19.5241 99.4239 19.1694L99.3272 19.0726H96.7473V31.1658H99.9721V24.3291H99.9399Z" fill="#22222A"/>
<path d="M112.194 29.7791C112.71 30.3273 113.355 30.7465 114.097 31.0045C114.839 31.2947 115.645 31.4237 116.548 31.4237C117.547 31.4237 118.418 31.3592 119.128 31.198C119.837 31.069 120.353 30.9078 120.676 30.7788L120.901 30.682V24.4581H117.644V28.4891C117.58 28.4891 117.515 28.4891 117.418 28.5214C117.225 28.5214 116.999 28.5214 116.709 28.5214C116.225 28.5214 115.806 28.4246 115.484 28.2956C115.129 28.1344 114.839 27.9087 114.613 27.6184C114.387 27.3282 114.194 26.9735 114.097 26.5542C113.968 26.135 113.903 25.6513 113.903 25.1353C113.903 24.0711 114.161 23.2327 114.613 22.6199C115.064 22.0395 115.871 21.7492 116.935 21.7492C117.451 21.7492 117.902 21.8137 118.321 21.9427C118.741 22.0717 119.128 22.233 119.482 22.3942L119.837 22.5877L120.805 19.9111L120.579 19.7498C120.482 19.6853 120.321 19.6208 120.127 19.4919C119.902 19.3951 119.644 19.2984 119.289 19.1694C118.966 19.0726 118.579 18.9759 118.128 18.9114C117.676 18.8469 117.16 18.8146 116.612 18.8146C115.774 18.8146 115 18.9436 114.258 19.2339C113.516 19.5241 112.871 19.9433 112.323 20.4593C111.775 21.0075 111.356 21.6525 111.033 22.4587C110.711 23.2327 110.55 24.1356 110.55 25.1353C110.55 26.1028 110.679 27.0057 110.969 27.7797C111.259 28.5536 111.678 29.2309 112.194 29.7791Z" fill="#22222A"/>
<path d="M133.317 28.3602H127.77L127.738 26.393H130.963V23.6197H127.738L127.77 21.9427H133.317V19.1049H124.513V31.198H133.317V28.3602Z" fill="#22222A"/>
<defs>
<linearGradient id="paint0_linear_443_6694" x1="13.9076" y1="50.934" x2="46.8678" y2="4.29626" gradientUnits="userSpaceOnUse">
<stop stop-color="#1ED478"/>
<stop offset="1" stop-color="#3F71F1"/>
</linearGradient>
</defs>
</svg>
